icon.svg

<svg width="100" height="100" viewBox="0 0 100 100" fill="none" xmlns="http://www.w3.org/2000/svg">
<path d="M5 55H95V81C95 87.6274 89.6274 93 83 93H17C10.3726 93 5 87.6274 5 81V55Z" fill="#005589"/>
<path d="M5 55H95V81C95 87.6274 89.6274 93 83 93H17C10.3726 93 5 87.6274 5 81V55Z" fill="url(#paint0_linear_10750_486)"/>
<path d="M5 44.5V19C5 12.3726 10.3726 7 17 7H56.5H83C89.6274 7 95 12.3726 95 19V73C95 79.6274 89.6274 85 83 85H17C10.3726 85 5 79.6274 5 73V44.5Z" fill="#1A0324"/>
<path d="M5 54.5C5 47.9776 12.851 44.6726 17.5158 49.2313L20.4039 52.0538C24.0285 55.596 29.8529 55.4793 33.3327 51.7948L35.5 49.5L36.6994 48.0007C40.5336 43.208 47.4162 42.1854 52.4782 45.6565L55.5237 47.7448C58.6532 49.8908 62.8905 49.3732 65.4115 46.5371C67.5565 44.124 71.0011 43.3466 73.9746 44.6046L78.5201 46.5277C80.6545 47.4307 83.1153 47.0563 84.8845 45.5593C88.8787 42.1796 95 45.0186 95 50.2508V73C95 79.6274 89.6274 85 83 85H17C10.3726 85 5 79.6274 5 73V54.5Z" fill="#7409A5"/>
<path d="M41.1583 33.328C36.5076 33.328 33.1369 34.6293 31.0463 37.232C28.9983 39.792 27.9743 43.312 27.9743 47.792C27.9743 49.968 28.2303 51.952 28.7423 53.744C29.2543 55.4933 30.0223 57.008 31.0463 58.288C32.0703 59.568 33.3503 60.5707 34.8863 61.296C36.4223 61.9787 38.2143 62.32 40.2623 62.32C41.3716 62.32 42.3103 62.2987 43.0783 62.256C43.8889 62.2133 44.5929 62.128 45.1903 62V46.576H55.1743V68.528C53.9796 68.9973 52.0596 69.488 49.4143 70C46.7689 70.5547 43.5049 70.832 39.6223 70.832C36.2943 70.832 33.2649 70.32 30.5343 69.296C27.8463 68.272 25.5423 66.7787 23.6223 64.816C21.7023 62.8533 20.2089 60.4427 19.1423 57.584C18.1183 54.7253 17.6063 51.4613 17.6063 47.792C17.6063 44.08 18.1823 40.7947 19.3343 37.936C20.4863 35.0773 22.0649 32.6667 24.0703 30.704C26.0756 28.6987 28.4223 27.184 31.1103 26.16C33.8409 25.136 36.7423 24.624 39.8143 24.624C41.9049 24.624 43.7823 24.7733 45.4463 25.072C47.1529 25.328 48.6036 25.648 49.7983 26.032C51.0356 26.3733 52.0383 26.736 52.8063 27.12C53.6169 27.504 54.1929 27.8027 54.5343 28.016L51.6543 36.016C50.2889 35.2907 48.7103 34.672 46.9183 34.16C45.1689 33.6053 43.2489 33.328 41.1583 33.328ZM77.2638 70.64C74.4904 70.5973 72.2291 70.2987 70.4798 69.744C68.7731 69.1893 67.4078 68.4213 66.3838 67.44C65.4024 66.416 64.7198 65.2 64.3358 63.792C63.9944 62.3413 63.8238 60.72 63.8238 58.928V21.872L73.3598 20.336V57.008C73.3598 57.8613 73.4238 58.6293 73.5518 59.312C73.6798 59.9947 73.9144 60.5707 74.2558 61.04C74.6398 61.5093 75.1731 61.8933 75.8558 62.192C76.5384 62.4907 77.4558 62.6827 78.6078 62.768L77.2638 70.64Z" fill="white"/>
<defs>
<linearGradient id="paint0_linear_10750_486" x1="102.5" y1="81.7105" x2="-4.49999" y2="81.7105" gradientUnits="userSpaceOnUse">
<stop stop-color="#2B023E"/>
<stop offset="0.145131" stop-color="#7006A1"/>
<stop offset="0.288462" stop-color="#2B023E"/>
<stop offset="0.692308" stop-color="#2B023E"/>
<stop offset="0.846154" stop-color="#7006A1"/>
<stop offset="1" stop-color="#2B023E"/>
</linearGradient>
</defs>
</svg>

<svg xmlns="http://www.w3.org/2000/svg" width="100" height="100" fill="none" xmlns:v="https://vecta.io/nano"><use href="#B" fill="#005589"/><use href="#B" fill="url(#A)"/><path d="M5 44.5V19c0-6.627 5.373-12 12-12h39.5H83c6.627 0 12 5.373 12 12v54c0 6.627-5.373 12-12 12H17c-6.627 0-12-5.373-12-12V44.5z" fill="#1a0324"/><path d="M5 54.5c0-6.522 7.851-9.827 12.516-5.269l2.888 2.823a9.07 9.07 0 0 0 12.929-.259L35.5 49.5l1.199-1.499a11.72 11.72 0 0 1 15.779-2.344l3.045 2.088a7.53 7.53 0 0 0 9.888-1.208 7.53 7.53 0 0 1 8.563-1.933l4.546 1.923c2.134.903 4.595.529 6.364-.968C88.879 42.18 95 45.019 95 50.251V73c0 6.627-5.373 12-12 12H17c-6.627 0-12-5.373-12-12V54.5z" fill="#7409a5"/><path d="M41.158 33.328c-4.651 0-8.021 1.301-10.112 3.904-2.048 2.56-3.072 6.08-3.072 10.56 0 2.176.256 4.16.768 5.952.512 1.749 1.28 3.264 2.304 4.544s2.304 2.283 3.84 3.008c1.536.683 3.328 1.024 5.376 1.024 1.109 0 2.048-.021 2.816-.064.811-.043 1.515-.128 2.112-.256V46.576h9.984v21.952c-1.195.469-3.115.96-5.76 1.472-2.645.555-5.909.832-9.792.832-3.328 0-6.357-.512-9.088-1.536-2.688-1.024-4.992-2.517-6.912-4.48s-3.413-4.373-4.48-7.232c-1.024-2.859-1.536-6.123-1.536-9.792 0-3.712.576-6.997 1.728-9.856s2.731-5.269 4.736-7.232c2.005-2.005 4.352-3.52 7.04-4.544 2.731-1.024 5.632-1.536 8.704-1.536 2.091 0 3.968.149 5.632.448 1.707.256 3.157.576 4.352.96 1.237.341 2.24.704 3.008 1.088.811.384 1.387.683 1.728.896l-2.88 8c-1.365-.725-2.944-1.344-4.736-1.856-1.749-.555-3.669-.832-5.76-.832zM77.264 70.64c-2.773-.043-5.035-.341-6.784-.896-1.707-.555-3.072-1.323-4.096-2.304-.981-1.024-1.664-2.24-2.048-3.648-.341-1.451-.512-3.072-.512-4.864V21.872l9.536-1.536v36.672c0 .853.064 1.621.192 2.304s.363 1.259.704 1.728c.384.469.917.853 1.6 1.152s1.6.491 2.752.576l-1.344 7.872z" fill="#fff"/><defs><linearGradient id="A" x1="106.606" y1="81.711" x2="-4.5" y2="81.711" gradientUnits="userSpaceOnUse"><stop stop-color="#2b023e"/><stop offset=".139" stop-color="#7006a1"/><stop offset=".288" stop-color="#2b023e"/><stop offset=".692" stop-color="#2b023e"/><stop offset=".846" stop-color="#7006a1"/><stop offset="1" stop-color="#2b023e"/></linearGradient><path id="B" d="M5 55h90v26c0 6.627-5.373 12-12 12H17c-6.627 0-12-5.373-12-12V55z"/></defs></svg>
